branches/nugui/src/gui/icons/style_scaled.svg

<?xml version="1.0" encoding="UTF-8" standalone="no"?>
<!-- Created with Inkscape (http://www.inkscape.org/) -->

<svg
   xmlns:dc="http://purl.org/dc/elements/1.1/"
   xmlns:cc="http://creativecommons.org/ns#"
   xmlns:rdf="http://www.w3.org/1999/02/22-rdf-syntax-ns#"
   xmlns:svg="http://www.w3.org/2000/svg"
   xmlns="http://www.w3.org/2000/svg"
   xmlns:xlink="http://www.w3.org/1999/xlink"
   xmlns:inkscape="http://www.inkscape.org/namespaces/inkscape"
   version="1.0"
   width="100"
   height="100"
   id="svg2">
  <metadata
     id="metadata87">
    <rdf:RDF>
      <cc:Work
         rdf:about="">
        <dc:format>image/svg+xml</dc:format>
        <dc:type
           rdf:resource="http://purl.org/dc/dcmitype/StillImage" />
      </cc:Work>
    </rdf:RDF>
  </metadata>
  <defs
     id="defs4">
    <linearGradient
       id="linearGradient3384">
      <stop
         id="stop3386"
         style="stop-color:#ff0000;stop-opacity:1"
         offset="0" />
      <stop
         id="stop3388"
         style="stop-color:#000000;stop-opacity:1"
         offset="1" />
    </linearGradient>
    <linearGradient
       id="linearGradient3252">
      <stop
         id="stop3254"
         style="stop-color:#ffffff;stop-opacity:1"
         offset="0" />
      <stop
         id="stop3256"
         style="stop-color:#ff0000;stop-opacity:0"
         offset="1" />
    </linearGradient>
    <radialGradient
       cx="58.01162"
       cy="63.345894"
       r="33.113495"
       fx="58.01162"
       fy="63.345894"
       id="radialGradient2379"
       xlink:href="#linearGradient3252"
       gradientUnits="userSpaceOnUse"
       gradientTransform="matrix(0.5123554,0,0,0.5123554,10.036276,2.1773356)" />
    <linearGradient
       x1="25.398125"
       y1="63.345894"
       x2="90.625114"
       y2="63.345894"
       id="linearGradient2382"
       xlink:href="#linearGradient3384"
       gradientUnits="userSpaceOnUse"
       gradientTransform="matrix(0.6454758,0.6454758,-0.6454758,0.6454758,54.259471,-32.414977)" />
  </defs>
  <path
     d="m 90.831239,46.124498 c 0.0032,18.048852 -14.627439,32.682014 -32.676292,32.682014 -18.048851,0 -32.67945,-14.633162 -32.67629,-32.682014 -0.0032,-18.048851 14.627439,-32.682013 32.67629,-32.682013 18.048853,0 32.679452,14.633162 32.676292,32.682013 z"
     inkscape:connector-curvature="0"
     id="path3289"
     style="fill:#282828;fill-opacity:1;fill-rule:evenodd;stroke:none" />
  <use
     transform="matrix(0.4676798,0,0,0.4676798,0.8879234,52.198075)"
     id="use2393"
     style="fill:#282828;fill-opacity:1"
     x="0"
     y="0"
     width="100"
     height="100"
     xlink:href="#path3289" />
  <g
     transform="matrix(1.0975907,0,0,1.0975907,-0.7743447,-8.4211916)"
     id="g2386">
    <path
       d="m 80.278556,46.028995 c 0.0029,16.444064 -13.326861,29.776139 -29.770926,29.776139 -16.444064,0 -29.773803,-13.332075 -29.770924,-29.776139 -0.0029,-16.444064 13.32686,-29.776139 29.770924,-29.776139 16.444065,0 29.773805,13.332075 29.770926,29.776139 z"
       inkscape:connector-curvature="0"
       id="path2277"
       style="fill:#ff0000;fill-rule:evenodd;stroke:#000000;stroke-width:0.91284072px;stroke-linecap:butt;stroke-linejoin:miter;stroke-opacity:1" />
    <path
       d="M 71.867547,66.969583 C 60.241875,78.599327 41.389126,78.600978 29.761417,66.973269 18.133709,55.345561 18.13536,36.492812 29.765104,24.86714 c 11.625673,-11.629744 30.478421,-11.631396 42.10613,-0.0037 11.627709,11.627709 11.626057,30.480457 -0.0037,42.10613 z"
       inkscape:connector-curvature="0"
       id="path3262"
       style="opacity:0.71739131;fill:url(#linearGradient2382);fill-opacity:1;fill-rule:evenodd;stroke:none" />
    <path
       d="m 56.468543,34.632946 c 0.0016,9.229656 -7.480045,16.712627 -16.709701,16.712627 -9.229655,0 -16.711315,-7.482971 -16.7097,-16.712627 -0.0016,-9.229655 7.480045,-16.712626 16.7097,-16.712626 9.229656,0 16.711317,7.482971 16.709701,16.712626 z"
       inkscape:connector-curvature="0"
       id="path2279"
       style="fill:url(#radialGradient2379);fill-opacity:1;fill-rule:evenodd;stroke:none" />
  </g>
  <use
     transform="matrix(0.4553966,0,0,0.4553966,0.9137314,52.865108)"
     id="use2391"
     x="0"
     y="0"
     width="100"
     height="100"
     xlink:href="#g2386" />
</svg>

<?xml version="1.0" encoding="UTF-8" standalone="no"?>
<!-- Created with Inkscape (http://www.inkscape.org/) -->
<svg
   xmlns:svg="http://www.w3.org/2000/svg"
   xmlns="http://www.w3.org/2000/svg"
   xmlns:xlink="http://www.w3.org/1999/xlink"
   version="1.0"
   width="100"
   height="100"
   id="svg2">
  <defs
     id="defs4">
    <linearGradient
       id="linearGradient3384">
      <stop
         id="stop3386"
         style="stop-color:#ff0000;stop-opacity:1"
         offset="0" />
      <stop
         id="stop3388"
         style="stop-color:#000000;stop-opacity:1"
         offset="1" />
    </linearGradient>
    <linearGradient
       id="linearGradient3252">
      <stop
         id="stop3254"
         style="stop-color:#ffffff;stop-opacity:1"
         offset="0" />
      <stop
         id="stop3256"
         style="stop-color:#ff0000;stop-opacity:0"
         offset="1" />
    </linearGradient>
    <radialGradient
       cx="58.01162"
       cy="63.345894"
       r="33.113495"
       fx="58.01162"
       fy="63.345894"
       id="radialGradient2379"
       xlink:href="#linearGradient3252"
       gradientUnits="userSpaceOnUse"
       gradientTransform="matrix(0.5123554,0,0,0.5123554,10.036276,2.1773356)" />
    <linearGradient
       x1="25.398125"
       y1="63.345894"
       x2="90.625114"
       y2="63.345894"
       id="linearGradient2382"
       xlink:href="#linearGradient3384"
       gradientUnits="userSpaceOnUse"
       gradientTransform="matrix(0.6454758,0.6454758,-0.6454758,0.6454758,54.259471,-32.414977)" />
  </defs>
  <path
     d="M 90.831239,46.124498 C 90.834439,64.17335 76.2038,78.806512 58.154947,78.806512 C 40.106096,78.806512 25.475497,64.17335 25.478657,46.124498 C 25.475457,28.075647 40.106096,13.442485 58.154947,13.442485 C 76.2038,13.442485 90.834399,28.075647 90.831239,46.124498 L 90.831239,46.124498 z"
     id="path3289"
     style="fill:#282828;fill-opacity:1;fill-rule:evenodd;stroke:none" />
  <use
     transform="matrix(0.4676798,0,0,0.4676798,0.8879234,52.198075)"
     id="use2393"
     style="fill:#282828;fill-opacity:1"
     x="0"
     y="0"
     width="100"
     height="100"
     xlink:href="#path3289" />
  <g
     transform="matrix(1.0975907,0,0,1.0975907,-0.7743447,-8.4211916)"
     id="g2386">
    <path
       d="M 80.278556,46.028995 C 80.281456,62.473059 66.951695,75.805134 50.50763,75.805134 C 34.063566,75.805134 20.733827,62.473059 20.736706,46.028995 C 20.733806,29.584931 34.063566,16.252856 50.50763,16.252856 C 66.951695,16.252856 80.281435,29.584931 80.278556,46.028995 z"
       id="path2277"
       style="fill:#ff0000;fill-rule:evenodd;stroke:#000000;stroke-width:0.91284072px;stroke-linecap:butt;stroke-linejoin:miter;stroke-opacity:1" />
    <path
       d="M 71.867547,66.969583 C 60.241875,78.599327 41.389126,78.600978 29.761417,66.973269 C 18.133709,55.345561 18.13536,36.492812 29.765104,24.86714 C 41.390777,13.237396 60.243525,13.235744 71.871234,24.86344 C 83.498943,36.491149 83.497291,55.343897 71.867534,66.96957 L 71.867547,66.969583 z"
       id="path3262"
       style="opacity:0.71739131;fill:url(#linearGradient2382);fill-opacity:1;fill-rule:evenodd;stroke:none" />
    <path
       d="M 56.468543,34.632946 C 56.470143,43.862602 48.988498,51.345573 39.758842,51.345573 C 30.529187,51.345573 23.047527,43.862602 23.049142,34.632946 C 23.047542,25.403291 30.529187,17.92032 39.758842,17.92032 C 48.988498,17.92032 56.470159,25.403291 56.468543,34.632946 L 56.468543,34.632946 z"
       id="path2279"
       style="fill:url(#radialGradient2379);fill-opacity:1;fill-rule:evenodd;stroke:none" />
  </g>
  <use
     transform="matrix(0.4553966,0,0,0.4553966,0.9137314,52.865108)"
     id="use2391"
     x="0"
     y="0"
     width="100"
     height="100"
     xlink:href="#g2386" />
</svg>
